images/6603942.svg

<?xml version="1.0" encoding="UTF-8"?>
<svg xmlns="http://www.w3.org/2000/svg" xmlns:xlink="http://www.w3.org/1999/xlink" width="300pt" height="300pt" viewBox="0 0 300 300" version="1.1">
<defs>
<g>
<symbol overflow="visible" id="glyph0-0">
<path style="stroke:none;" d="M 0.453125 1.59375 L 0.453125 -6.34375 L 4.953125 -6.34375 L 4.953125 1.59375 Z M 0.953125 1.09375 L 4.453125 1.09375 L 4.453125 -5.84375 L 0.953125 -5.84375 Z M 0.953125 1.09375 "/>
</symbol>
<symbol overflow="visible" id="glyph0-1">
<path style="stroke:none;" d="M 0.890625 -6.5625 L 4.65625 -6.5625 L 4.65625 -5.8125 L 1.765625 -5.8125 L 1.765625 -3.875 L 4.375 -3.875 L 4.375 -3.140625 L 1.765625 -3.140625 L 1.765625 0 L 0.890625 0 Z M 0.890625 -6.5625 "/>
</symbol>
<symbol overflow="visible" id="glyph0-2">
<path style="stroke:none;" d="M 0.890625 -6.5625 L 2.078125 -6.5625 L 4.984375 -1.078125 L 4.984375 -6.5625 L 5.84375 -6.5625 L 5.84375 0 L 4.65625 0 L 1.75 -5.484375 L 1.75 0 L 0.890625 0 Z M 0.890625 -6.5625 "/>
</symbol>
<symbol overflow="visible" id="glyph0-3">
<path style="stroke:none;" d="M 0.890625 -6.5625 L 1.765625 -6.5625 L 1.765625 -3.875 L 5 -3.875 L 5 -6.5625 L 5.890625 -6.5625 L 5.890625 0 L 5 0 L 5 -3.125 L 1.765625 -3.125 L 1.765625 0 L 0.890625 0 Z M 0.890625 -6.5625 "/>
</symbol>
<symbol overflow="visible" id="glyph0-4">
<path style="stroke:none;" d="M 3.546875 -5.953125 C 2.898438 -5.953125 2.382812 -5.710938 2 -5.234375 C 1.625 -4.753906 1.4375 -4.101562 1.4375 -3.28125 C 1.4375 -2.445312 1.625 -1.789062 2 -1.3125 C 2.382812 -0.832031 2.898438 -0.59375 3.546875 -0.59375 C 4.191406 -0.59375 4.703125 -0.832031 5.078125 -1.3125 C 5.453125 -1.789062 5.640625 -2.445312 5.640625 -3.28125 C 5.640625 -4.101562 5.453125 -4.753906 5.078125 -5.234375 C 4.703125 -5.710938 4.191406 -5.953125 3.546875 -5.953125 Z M 3.546875 -6.6875 C 4.460938 -6.6875 5.195312 -6.375 5.75 -5.75 C 6.300781 -5.132812 6.578125 -4.3125 6.578125 -3.28125 C 6.578125 -2.238281 6.300781 -1.410156 5.75 -0.796875 C 5.195312 -0.179688 4.460938 0.125 3.546875 0.125 C 2.617188 0.125 1.878906 -0.179688 1.328125 -0.796875 C 0.773438 -1.410156 0.5 -2.238281 0.5 -3.28125 C 0.5 -4.3125 0.773438 -5.132812 1.328125 -5.75 C 1.878906 -6.375 2.617188 -6.6875 3.546875 -6.6875 Z M 3.546875 -6.6875 "/>
</symbol>
</g>
</defs>
<g id="surface41081">
<rect x="0" y="0" width="300" height="300" style="fill:rgb(100%,100%,100%);fill-opacity:1;stroke:none;"/>
<path style="fill:none;stroke-width:1.2;stroke-linecap:butt;stroke-linejoin:miter;stroke:rgb(0%,0%,0%);stroke-opacity:1;stroke-miterlimit:10;" d="M 35.25 160.191406 L 52.707031 155.75 "/>
<path style="fill:none;stroke-width:1.2;stroke-linecap:butt;stroke-linejoin:miter;stroke:rgb(0%,0%,0%);stroke-opacity:1;stroke-miterlimit:10;" d="M 52.707031 155.75 L 65.285156 168.648438 "/>
<path style="fill:none;stroke-width:1.2;stroke-linecap:butt;stroke-linejoin:miter;stroke:rgb(0%,0%,0%);stroke-opacity:1;stroke-miterlimit:10;" d="M 52.707031 155.75 L 57.589844 138.410156 "/>
<path style="fill:none;stroke-width:1.2;stroke-linecap:butt;stroke-linejoin:miter;stroke:rgb(0%,0%,0%);stroke-opacity:1;stroke-miterlimit:10;" d="M 57.589844 138.410156 L 75.050781 133.96875 "/>
<path style="fill:none;stroke-width:1.2;stroke-linecap:butt;stroke-linejoin:miter;stroke:rgb(0%,0%,0%);stroke-opacity:1;stroke-miterlimit:10;" d="M 58.292969 133.859375 L 72.257812 130.304688 "/>
<path style="fill:none;stroke-width:1.2;stroke-linecap:butt;stroke-linejoin:miter;stroke:rgb(0%,0%,0%);stroke-opacity:1;stroke-miterlimit:10;" d="M 45.015625 125.511719 L 57.589844 138.410156 "/>
<path style="fill:none;stroke-width:1.2;stroke-linecap:butt;stroke-linejoin:miter;stroke:rgb(0%,0%,0%);stroke-opacity:1;stroke-miterlimit:10;" d="M 75.050781 133.96875 L 87.625 146.867188 "/>
<path style="fill:none;stroke-width:1.2;stroke-linecap:butt;stroke-linejoin:miter;stroke:rgb(0%,0%,0%);stroke-opacity:1;stroke-miterlimit:10;" d="M 79.933594 116.628906 L 75.050781 133.96875 "/>
<path style="fill:none;stroke-width:1.2;stroke-linecap:butt;stroke-linejoin:miter;stroke:rgb(0%,0%,0%);stroke-opacity:1;stroke-miterlimit:10;" d="M 87.625 146.867188 L 105.082031 142.425781 "/>
<path style="fill:none;stroke-width:1.2;stroke-linecap:butt;stroke-linejoin:miter;stroke:rgb(0%,0%,0%);stroke-opacity:1;stroke-miterlimit:10;" d="M 105.082031 142.425781 L 109.964844 125.085938 "/>
<path style="fill:none;stroke-width:1;stroke-linecap:butt;stroke-linejoin:miter;stroke:rgb(0%,0%,0%);stroke-opacity:1;stroke-miterlimit:10;" d="M 105.082031 142.425781 L 105.082031 142.425781 M 107.96875 143.238281 L 108.074219 142.203125 M 110.859375 144.054688 L 111.066406 141.980469 M 113.746094 144.867188 L 114.058594 141.753906 M 116.632812 145.679688 L 117.050781 141.53125 M 119.519531 146.496094 L 120.039062 141.308594 M 122.40625 147.308594 L 123.03125 141.082031 M 122.691406 147.386719 L 123.324219 141.0625 "/>
<path style="fill:none;stroke-width:1.2;stroke-linecap:butt;stroke-linejoin:miter;stroke:rgb(0%,0%,0%);stroke-opacity:1;stroke-miterlimit:10;" d="M 105.082031 142.425781 L 105.753906 151.410156 "/>
<path style="fill:none;stroke-width:1.2;stroke-linecap:butt;stroke-linejoin:miter;stroke:rgb(100%,0%,0%);stroke-opacity:1;stroke-miterlimit:10;" d="M 105.753906 151.410156 L 106.425781 160.390625 "/>
<path style="fill:none;stroke-width:1.2;stroke-linecap:butt;stroke-linejoin:miter;stroke:rgb(0%,0%,0%);stroke-opacity:1;stroke-miterlimit:10;" d="M 109.964844 125.085938 L 97.390625 112.1875 "/>
<path style="fill:none;stroke-width:1.2;stroke-linecap:butt;stroke-linejoin:miter;stroke:rgb(0%,0%,0%);stroke-opacity:1;stroke-miterlimit:10;" d="M 97.390625 112.1875 L 79.933594 116.628906 "/>
<path style="fill:none;stroke-width:1.2;stroke-linecap:butt;stroke-linejoin:miter;stroke:rgb(0%,0%,0%);stroke-opacity:1;stroke-miterlimit:10;" d="M 79.933594 116.628906 L 67.355469 103.730469 "/>
<path style="fill:none;stroke-width:1.2;stroke-linecap:butt;stroke-linejoin:miter;stroke:rgb(0%,0%,0%);stroke-opacity:1;stroke-miterlimit:10;" d="M 75.640625 118.296875 L 65.578125 107.980469 "/>
<path style="fill:none;stroke-width:1.2;stroke-linecap:butt;stroke-linejoin:miter;stroke:rgb(0%,0%,0%);stroke-opacity:1;stroke-miterlimit:10;" d="M 67.355469 103.730469 L 49.898438 108.171875 "/>
<path style="fill:none;stroke-width:1.2;stroke-linecap:butt;stroke-linejoin:miter;stroke:rgb(0%,0%,0%);stroke-opacity:1;stroke-miterlimit:10;" d="M 49.898438 108.171875 L 45.015625 125.511719 "/>
<path style="fill:none;stroke-width:1.2;stroke-linecap:butt;stroke-linejoin:miter;stroke:rgb(0%,0%,0%);stroke-opacity:1;stroke-miterlimit:10;" d="M 53.492188 111.054688 L 49.585938 124.925781 "/>
<path style="fill:none;stroke-width:1.2;stroke-linecap:butt;stroke-linejoin:miter;stroke:rgb(0%,0%,0%);stroke-opacity:1;stroke-miterlimit:10;" d="M 49.898438 108.171875 L 43.613281 101.722656 "/>
<path style="fill:none;stroke-width:1.2;stroke-linecap:butt;stroke-linejoin:miter;stroke:rgb(20%,80%,80%);stroke-opacity:1;stroke-miterlimit:10;" d="M 43.613281 101.722656 L 37.324219 95.273438 "/>
<path style=" stroke:none;fill-rule:nonzero;fill:rgb(100%,100%,100%);fill-opacity:1;" d="M 31.324219 89.773438 L 37.324219 89.773438 L 37.324219 100.773438 L 31.324219 100.773438 Z M 31.324219 89.773438 "/>
<g style="fill:rgb(20%,80%,80%);fill-opacity:1;">
  <use xlink:href="#glyph0-1" x="31.324219" y="98.436523"/>
</g>
<path style="fill:none;stroke-width:1.2;stroke-linecap:butt;stroke-linejoin:miter;stroke:rgb(0%,0%,0%);stroke-opacity:1;stroke-miterlimit:10;" d="M 123.007812 144.222656 L 130.410156 160.644531 "/>
<path style="fill:none;stroke-width:1.2;stroke-linecap:butt;stroke-linejoin:miter;stroke:rgb(0%,0%,0%);stroke-opacity:1;stroke-miterlimit:10;" d="M 130.410156 160.644531 L 139.375 161.546875 "/>
<path style="fill:none;stroke-width:1.2;stroke-linecap:butt;stroke-linejoin:miter;stroke:rgb(0%,0%,100%);stroke-opacity:1;stroke-miterlimit:10;" d="M 139.375 161.546875 L 148.335938 162.445312 "/>
<path style="fill:none;stroke-width:1.2;stroke-linecap:butt;stroke-linejoin:miter;stroke:rgb(0%,0%,100%);stroke-opacity:1;stroke-miterlimit:10;" d="M 148.335938 162.445312 L 152.039062 170.65625 "/>
<path style="fill:none;stroke-width:1.2;stroke-linecap:butt;stroke-linejoin:miter;stroke:rgb(0%,0%,0%);stroke-opacity:1;stroke-miterlimit:10;" d="M 152.039062 170.65625 L 155.742188 178.867188 "/>
<path style="fill:none;stroke-width:1.2;stroke-linecap:butt;stroke-linejoin:miter;stroke:rgb(0%,0%,100%);stroke-opacity:1;stroke-miterlimit:10;" d="M 148.335938 162.445312 L 153.597656 155.132812 "/>
<path style="fill:none;stroke-width:1.2;stroke-linecap:butt;stroke-linejoin:miter;stroke:rgb(0%,0%,0%);stroke-opacity:1;stroke-miterlimit:10;" d="M 153.597656 155.132812 L 158.855469 147.820312 "/>
<path style=" stroke:none;fill-rule:nonzero;fill:rgb(100%,100%,100%);fill-opacity:1;" d="M 145.335938 156.945312 L 152.335938 156.945312 L 152.335938 167.945312 L 145.335938 167.945312 Z M 145.335938 156.945312 "/>
<g style="fill:rgb(0%,0%,100%);fill-opacity:1;">
  <use xlink:href="#glyph0-2" x="145.335938" y="165.608398"/>
</g>
<path style="fill:none;stroke-width:1.2;stroke-linecap:butt;stroke-linejoin:miter;stroke:rgb(0%,0%,0%);stroke-opacity:1;stroke-miterlimit:10;" d="M 158.855469 147.820312 L 176.78125 149.617188 "/>
<path style="fill:none;stroke-width:1.2;stroke-linecap:butt;stroke-linejoin:miter;stroke:rgb(0%,0%,0%);stroke-opacity:1;stroke-miterlimit:10;" d="M 176.78125 149.617188 L 187.296875 134.996094 "/>
<path style="fill:none;stroke-width:1.2;stroke-linecap:butt;stroke-linejoin:miter;stroke:rgb(0%,0%,0%);stroke-opacity:1;stroke-miterlimit:10;" d="M 187.296875 134.996094 L 205.222656 136.792969 "/>
<path style="fill:none;stroke-width:1.2;stroke-linecap:butt;stroke-linejoin:miter;stroke:rgb(0%,0%,0%);stroke-opacity:1;stroke-miterlimit:10;" d="M 205.222656 136.792969 L 209.761719 144.570312 "/>
<path style="fill:none;stroke-width:1.2;stroke-linecap:butt;stroke-linejoin:miter;stroke:rgb(0%,0%,100%);stroke-opacity:1;stroke-miterlimit:10;" d="M 209.761719 144.570312 L 214.304688 152.351562 "/>
<path style="fill:none;stroke-width:1.2;stroke-linecap:butt;stroke-linejoin:miter;stroke:rgb(0%,0%,0%);stroke-opacity:1;stroke-miterlimit:10;" d="M 209.792969 136.210938 L 213.425781 142.433594 "/>
<path style="fill:none;stroke-width:1.2;stroke-linecap:butt;stroke-linejoin:miter;stroke:rgb(0%,0%,100%);stroke-opacity:1;stroke-miterlimit:10;" d="M 213.425781 142.433594 L 217.054688 148.65625 "/>
<path style="fill:none;stroke-width:1.2;stroke-linecap:butt;stroke-linejoin:miter;stroke:rgb(0%,0%,100%);stroke-opacity:1;stroke-miterlimit:10;" d="M 217.214844 123.347656 L 211.21875 130.070312 "/>
<path style="fill:none;stroke-width:1.2;stroke-linecap:butt;stroke-linejoin:miter;stroke:rgb(0%,0%,0%);stroke-opacity:1;stroke-miterlimit:10;" d="M 211.21875 130.070312 L 205.222656 136.792969 "/>
<path style="fill:none;stroke-width:1.2;stroke-linecap:butt;stroke-linejoin:miter;stroke:rgb(0%,0%,100%);stroke-opacity:1;stroke-miterlimit:10;" d="M 214.304688 152.351562 L 223.105469 150.433594 "/>
<path style="fill:none;stroke-width:1.2;stroke-linecap:butt;stroke-linejoin:miter;stroke:rgb(0%,0%,0%);stroke-opacity:1;stroke-miterlimit:10;" d="M 223.105469 150.433594 L 231.90625 148.519531 "/>
<path style=" stroke:none;fill-rule:nonzero;fill:rgb(100%,100%,100%);fill-opacity:1;" d="M 211.304688 146.851562 L 218.304688 146.851562 L 218.304688 157.851562 L 211.304688 157.851562 Z M 211.304688 146.851562 "/>
<g style="fill:rgb(0%,0%,100%);fill-opacity:1;">
  <use xlink:href="#glyph0-2" x="211.304688" y="155.514648"/>
</g>
<path style="fill:none;stroke-width:1.2;stroke-linecap:butt;stroke-linejoin:miter;stroke:rgb(0%,0%,0%);stroke-opacity:1;stroke-miterlimit:10;" d="M 231.90625 148.519531 L 246.53125 159.039062 "/>
<path style="fill:none;stroke-width:1.2;stroke-linecap:butt;stroke-linejoin:miter;stroke:rgb(0%,0%,0%);stroke-opacity:1;stroke-miterlimit:10;" d="M 235.84375 146.132812 L 247.542969 154.546875 "/>
<path style="fill:none;stroke-width:1.2;stroke-linecap:butt;stroke-linejoin:miter;stroke:rgb(0%,0%,0%);stroke-opacity:1;stroke-miterlimit:10;" d="M 233.703125 130.597656 L 231.90625 148.519531 "/>
<path style="fill:none;stroke-width:1.2;stroke-linecap:butt;stroke-linejoin:miter;stroke:rgb(0%,0%,0%);stroke-opacity:1;stroke-miterlimit:10;" d="M 246.53125 159.039062 L 262.953125 151.636719 "/>
<path style="fill:none;stroke-width:1.2;stroke-linecap:butt;stroke-linejoin:miter;stroke:rgb(0%,0%,0%);stroke-opacity:1;stroke-miterlimit:10;" d="M 262.953125 151.636719 L 264.75 133.710938 "/>
<path style="fill:none;stroke-width:1.2;stroke-linecap:butt;stroke-linejoin:miter;stroke:rgb(0%,0%,0%);stroke-opacity:1;stroke-miterlimit:10;" d="M 258.914062 149.417969 L 260.351562 135.078125 "/>
<path style="fill:none;stroke-width:1.2;stroke-linecap:butt;stroke-linejoin:miter;stroke:rgb(0%,0%,0%);stroke-opacity:1;stroke-miterlimit:10;" d="M 264.75 133.710938 L 250.125 123.191406 "/>
<path style="fill:none;stroke-width:1.2;stroke-linecap:butt;stroke-linejoin:miter;stroke:rgb(0%,0%,0%);stroke-opacity:1;stroke-miterlimit:10;" d="M 250.125 123.191406 L 233.703125 130.597656 "/>
<path style="fill:none;stroke-width:1.2;stroke-linecap:butt;stroke-linejoin:miter;stroke:rgb(0%,0%,0%);stroke-opacity:1;stroke-miterlimit:10;" d="M 250.226562 127.796875 L 237.089844 133.71875 "/>
<path style="fill:none;stroke-width:1.2;stroke-linecap:butt;stroke-linejoin:miter;stroke:rgb(0%,0%,0%);stroke-opacity:1;stroke-miterlimit:10;" d="M 233.703125 130.597656 L 225.457031 126.972656 "/>
<path style="fill:none;stroke-width:1.2;stroke-linecap:butt;stroke-linejoin:miter;stroke:rgb(0%,0%,100%);stroke-opacity:1;stroke-miterlimit:10;" d="M 225.457031 126.972656 L 217.214844 123.347656 "/>
<path style=" stroke:none;fill-rule:nonzero;fill:rgb(100%,100%,100%);fill-opacity:1;" d="M 210.214844 117.847656 L 224.214844 117.847656 L 224.214844 128.847656 L 210.214844 128.847656 Z M 210.214844 117.847656 "/>
<g style="fill:rgb(0%,0%,100%);fill-opacity:1;">
  <use xlink:href="#glyph0-2" x="210.214844" y="126.510742"/>
  <use xlink:href="#glyph0-3" x="217.192383" y="126.510742"/>
</g>
<path style="fill:none;stroke-width:1.2;stroke-linecap:butt;stroke-linejoin:miter;stroke:rgb(100%,0%,0%);stroke-opacity:1;stroke-miterlimit:10;" d="M 106.425781 160.390625 L 98.980469 165.460938 "/>
<path style="fill:none;stroke-width:1.2;stroke-linecap:butt;stroke-linejoin:miter;stroke:rgb(0%,0%,0%);stroke-opacity:1;stroke-miterlimit:10;" d="M 98.980469 165.460938 L 91.539062 170.535156 "/>
<path style=" stroke:none;fill-rule:nonzero;fill:rgb(100%,100%,100%);fill-opacity:1;" d="M 102.425781 154.890625 L 110.425781 154.890625 L 110.425781 165.890625 L 102.425781 165.890625 Z M 102.425781 154.890625 "/>
<g style="fill:rgb(100%,0%,0%);fill-opacity:1;">
  <use xlink:href="#glyph0-4" x="102.425781" y="163.553711"/>
</g>
<path style="fill:none;stroke-width:1.2;stroke-linecap:butt;stroke-linejoin:miter;stroke:rgb(0%,0%,0%);stroke-opacity:1;stroke-miterlimit:10;" d="M 92.457031 168.625 L 84.34375 164.714844 "/>
<path style="fill:none;stroke-width:1.2;stroke-linecap:butt;stroke-linejoin:miter;stroke:rgb(100%,0%,0%);stroke-opacity:1;stroke-miterlimit:10;" d="M 84.34375 164.714844 L 76.230469 160.804688 "/>
<path style="fill:none;stroke-width:1.2;stroke-linecap:butt;stroke-linejoin:miter;stroke:rgb(0%,0%,0%);stroke-opacity:1;stroke-miterlimit:10;" d="M 90.617188 172.445312 L 82.503906 168.535156 "/>
<path style="fill:none;stroke-width:1.2;stroke-linecap:butt;stroke-linejoin:miter;stroke:rgb(100%,0%,0%);stroke-opacity:1;stroke-miterlimit:10;" d="M 82.503906 168.535156 L 74.390625 164.625 "/>
<path style="fill:none;stroke-width:1.2;stroke-linecap:butt;stroke-linejoin:miter;stroke:rgb(0%,0%,0%);stroke-opacity:1;stroke-miterlimit:10;" d="M 91.539062 170.535156 L 92.878906 188.5 "/>
<path style=" stroke:none;fill-rule:nonzero;fill:rgb(100%,100%,100%);fill-opacity:1;" d="M 67.308594 157.214844 L 75.308594 157.214844 L 75.308594 168.214844 L 67.308594 168.214844 Z M 67.308594 157.214844 "/>
<g style="fill:rgb(100%,0%,0%);fill-opacity:1;">
  <use xlink:href="#glyph0-4" x="67.308594" y="165.87793"/>
</g>
<path style="fill:none;stroke-width:1.2;stroke-linecap:butt;stroke-linejoin:miter;stroke:rgb(0%,0%,0%);stroke-opacity:1;stroke-miterlimit:10;" d="M 92.878906 188.5 L 103.023438 203.386719 "/>
<path style="fill:none;stroke-width:1.2;stroke-linecap:butt;stroke-linejoin:miter;stroke:rgb(0%,0%,0%);stroke-opacity:1;stroke-miterlimit:10;" d="M 85.058594 204.726562 L 92.878906 188.5 "/>
<path style="fill:none;stroke-width:1.2;stroke-linecap:butt;stroke-linejoin:miter;stroke:rgb(0%,0%,0%);stroke-opacity:1;stroke-miterlimit:10;" d="M 103.023438 203.386719 L 85.058594 204.726562 "/>
</g>
</svg>

<svg xmlns="http://www.w3.org/2000/svg" xmlns:xlink="http://www.w3.org/1999/xlink" width="300pt" height="300pt" viewBox="0 0 300 300"><defs><symbol overflow="visible"><path d="M.453 1.594v-7.938h4.5v7.938zm.5-.5h3.5v-6.938h-3.5zm0 0"/></symbol><symbol overflow="visible" id="a"><path d="M.89-6.563h3.766v.75h-2.89v1.938h2.61v.734h-2.61V0H.89zm0 0"/></symbol><symbol overflow="visible" id="b"><path d="M.89-6.563H2.08l2.906 5.485v-5.484h.86V0H4.656L1.75-5.484V0H.89zm0 0"/></symbol><symbol overflow="visible" id="c"><path d="M.89-6.563h.876v2.688H5v-2.688h.89V0H5v-3.125H1.766V0H.89zm0 0"/></symbol><symbol overflow="visible" id="d"><path d="M3.547-5.953c-.65 0-1.164.242-1.547.72-.375.48-.563 1.13-.563 1.952 0 .835.188 1.49.563 1.967.383.48.898.72 1.547.72.644 0 1.156-.24 1.53-.72.376-.476.564-1.132.564-1.968 0-.822-.187-1.474-.562-1.954-.375-.477-.887-.72-1.53-.72zm0-.734c.914 0 1.648.312 2.203.937.55.617.828 1.438.828 2.47 0 1.042-.277 1.87-.828 2.483-.555.617-1.29.922-2.203.922-.93 0-1.668-.305-2.22-.922C.774-1.41.5-2.237.5-3.28c0-1.033.273-1.853.828-2.47.55-.625 1.29-.938 2.22-.938zm0 0"/></symbol></defs><g><path fill="#fff" d="M0 0h300v300H0z"/><path d="M35.25 160.19l17.457-4.44M52.707 155.75l12.578 12.898M52.707 155.75l4.883-17.34M57.59 138.41l17.46-4.44M58.293 133.86l13.965-3.555M45.016 125.512L57.59 138.41M75.05 133.97l12.575 12.897M79.934 116.63l-4.883 17.34M87.625 146.867l17.457-4.44M105.082 142.426l4.883-17.34" stroke-width="1.2" stroke="#000" stroke-miterlimit="10" fill="none"/><path d="M105.082 142.426m2.887.812l.104-1.035m2.785 1.852l.206-2.075m2.68 2.887l.313-3.113m2.573 3.926l.418-4.15m2.47 4.966l.52-5.187m2.366 6l.625-6.228m-.34 6.305l.634-6.325" stroke="#000" stroke-miterlimit="10" fill="none"/><path d="M105.082 142.426l.672 8.984" stroke-width="1.2" stroke="#000" stroke-miterlimit="10" fill="none"/><path d="M105.754 151.41l.672 8.98" stroke-width="1.2" stroke="#f00" stroke-miterlimit="10" fill="none"/><path d="M109.965 125.086L97.39 112.188M97.39 112.188l-17.456 4.44M79.934 116.63l-12.58-12.9M75.64 118.297L65.58 107.98M67.355 103.73l-17.457 4.442M49.898 108.172l-4.882 17.34M53.492 111.055l-3.906 13.87M49.898 108.172l-6.285-6.45" stroke-width="1.2" stroke="#000" stroke-miterlimit="10" fill="none"/><path d="M43.613 101.723l-6.29-6.45" stroke-width="1.2" stroke="#3cc" stroke-miterlimit="10" fill="none"/><path d="M31.324 89.773h6v11h-6zm0 0" fill="#fff"/><use xlink:href="#a" x="31.324" y="98.437" fill="#3cc"/><path d="M123.008 144.223l7.402 16.422M130.41 160.645l8.965.902" stroke-width="1.2" stroke="#000" stroke-miterlimit="10" fill="none"/><path d="M139.375 161.547l8.96.898M148.336 162.445l3.703 8.21" stroke-width="1.2" stroke="#00f" stroke-miterlimit="10" fill="none"/><path d="M152.04 170.656l3.702 8.21" stroke-width="1.2" stroke="#000" stroke-miterlimit="10" fill="none"/><path d="M148.336 162.445l5.262-7.312" stroke-width="1.2" stroke="#00f" stroke-miterlimit="10" fill="none"/><path d="M153.598 155.133l5.257-7.313" stroke-width="1.2" stroke="#000" stroke-miterlimit="10" fill="none"/><path d="M145.336 156.945h7v11h-7zm0 0" fill="#fff"/><use xlink:href="#b" x="145.336" y="165.608" fill="#00f"/><path d="M158.855 147.82l17.926 1.797M176.78 149.617l10.517-14.62M187.297 134.996l17.926 1.797M205.223 136.793l4.54 7.777" stroke-width="1.2" stroke="#000" stroke-miterlimit="10" fill="none"/><path d="M209.762 144.57l4.543 7.782" stroke-width="1.2" stroke="#00f" stroke-miterlimit="10" fill="none"/><path d="M209.793 136.21l3.633 6.224" stroke-width="1.2" stroke="#000" stroke-miterlimit="10" fill="none"/><path d="M213.426 142.434l3.63 6.222M217.215 123.348l-5.996 6.722" stroke-width="1.2" stroke="#00f" stroke-miterlimit="10" fill="none"/><path d="M211.22 130.07l-5.997 6.723" stroke-width="1.2" stroke="#000" stroke-miterlimit="10" fill="none"/><path d="M214.305 152.352l8.8-1.918" stroke-width="1.2" stroke="#00f" stroke-miterlimit="10" fill="none"/><path d="M223.105 150.434l8.8-1.914" stroke-width="1.2" stroke="#000" stroke-miterlimit="10" fill="none"/><path d="M211.305 146.852h7v11h-7zm0 0" fill="#fff"/><use xlink:href="#b" x="211.305" y="155.515" fill="#00f"/><path d="M231.906 148.52l14.625 10.52M235.844 146.133l11.7 8.414M233.703 130.598l-1.797 17.922M246.53 159.04l16.423-7.403M262.953 151.637l1.797-17.926M258.914 149.418l1.438-14.34M264.75 133.71l-14.625-10.52M250.125 123.19l-16.422 7.408M250.227 127.797l-13.137 5.922M233.703 130.598l-8.246-3.625" stroke-width="1.2" stroke="#000" stroke-miterlimit="10" fill="none"/><path d="M225.457 126.973l-8.242-3.625" stroke-width="1.2" stroke="#00f" stroke-miterlimit="10" fill="none"/><path d="M210.215 117.848h14v11h-14zm0 0" fill="#fff"/><g fill="#00f"><use xlink:href="#b" x="210.215" y="126.511"/><use xlink:href="#c" x="217.192" y="126.511"/></g><path d="M106.426 160.39l-7.446 5.07" stroke-width="1.2" stroke="#f00" stroke-miterlimit="10" fill="none"/><path d="M98.98 165.46l-7.44 5.075" stroke-width="1.2" stroke="#000" stroke-miterlimit="10" fill="none"/><path d="M102.426 154.89h8v11h-8zm0 0" fill="#fff"/><use xlink:href="#d" x="102.426" y="163.554" fill="#f00"/><path d="M92.457 168.625l-8.113-3.91" stroke-width="1.2" stroke="#000" stroke-miterlimit="10" fill="none"/><path d="M84.344 164.715l-8.114-3.91" stroke-width="1.2" stroke="#f00" stroke-miterlimit="10" fill="none"/><path d="M90.617 172.445l-8.113-3.91" stroke-width="1.2" stroke="#000" stroke-miterlimit="10" fill="none"/><path d="M82.504 168.535l-8.113-3.91" stroke-width="1.2" stroke="#f00" stroke-miterlimit="10" fill="none"/><path d="M91.54 170.535l1.34 17.965" stroke-width="1.2" stroke="#000" stroke-miterlimit="10" fill="none"/><path d="M67.31 157.215h8v11h-8zm0 0" fill="#fff"/><use xlink:href="#d" x="67.309" y="165.878" fill="#f00"/><path d="M92.88 188.5l10.143 14.887M85.06 204.727l7.82-16.227M103.023 203.387l-17.964 1.34" stroke-width="1.2" stroke="#000" stroke-miterlimit="10" fill="none"/></g></svg>
